X:196
M:6/8
L:1/8
Q:3/8=100
K:G
dBG cAF|GBd g2 b|agf ed^c|d3 d2:|
|:f/g/|afd dfg|afd g2 B|cec BdB|cAA A2 B/c/|\
dBd ece|fdf g2 e|dcB AGF|G3 G2:|

